X:1
T:Arnhem, LMD
T:Arnhem, LMD
T:Frank Monford Graham, 1914
T:Public Domain Courtesy of the Cyber Hymnal™
C:Frank Monford Graham, 1914
Z:Public Domain
Z:Courtesy of the Cyber Hymnal™
%%score 1 2
L:1/8
Q:1/4=90
M:3/4
K:Eb
V:1 treble 
V:2 bass 
V:1
 [B,E] | [B,E][DF] [EG]3 [DF] | [EG][FA] [GB]3 [GB] | [GB][EG] [DF]3 [Ac] | [GB][FA] [EG]3 [EG] | %5
 [EG][FA] [GB]3 [EG] | [FA][GB] [Ac]3 [Ae] | [Ae][Ac] [GB]3 [EG] | [EG][B,F] [B,E]3 [GB] | %9
 [Ae]>[Ae] [Ae]3 [Ac] | [Ae]>[Ac] [GB]3 [GB] | [GB][GB] [F=A]3 [FB] | [Fc]>[Fc] [FB]3 [EG] | %13
 [EG][FA] [GB]3 [EG] | [FA][GB] [Ac]3 [Ae] | [Ae][Ac] [GB]3 [EG] | [EG][B,F] [B,E]3 |] %17
V:2
 [E,G,] | [E,G,][E,A,] [E,B,]3 [E,B,] | [E,B,][E,B,] [E,E]3 [E,E] | [E,E][E,B,] [B,,B,]3 [B,,E] | %4
 [B,,E][D,B,] [E,B,]3 [E,B,] | [E,B,][E,B,] [E,E]3 [_D,B,] | [C,B,][B,,E] [A,,E]3 [A,,C] | %7
 [A,,C][C,E] [E,E]3 [E,B,] | [B,,B,][B,,A,] [E,G,]3 [E,E] | [A,C]>[A,C] [A,C]3 [A,E] | %10
 [A,C]>[A,E] [E,E]3 [E,E] | [E,E][E,E] [F,E]3 [F,D] | [F,C]>[F,C] [B,,D]3 [E,B,] | %13
 [E,B,][E,B,] [E,E]3 [_D,B,] | [C,B,][B,,E] [A,,E]3 [A,,C] | [A,,C][C,E] [E,E]3 [E,B,] | %16
 [B,,B,][B,,A,] [E,G,]3 |] %17

